X:1
T:James Gibb editions
T:Vecchie letrose - Willaert
T:#
%%score [ 1 2 3 4 ]
L:1/8
Q:1/4=120
M:none
K:C
V:1 treble nm="Alto" snm="A"
V:2 treble-8 nm="Tenor I" snm="T I"
V:3 treble-8 nm="Tenor II" snm="T II"
V:4 bass nm="Bass" snm="B"
V:1
"^Vecchie letrose""^Adrian Willaert\n(1490-1562)" E4 E2 E2 F4 E4 | z2 E2 F2 E2 F2 E2 G4 | %2
w: Vec- chie le- tro- se,|vec- chie le- tro- se non|
 G2 G4 G2 ^F4 G4 | z2 E2 E2 E2 F4 E4 | z2 E2 F2 E2 F2 E2 G4 | G2 G4 G2 ^F4 G2 G2 | %6
w: va- le- te nien- te,|vec- chie le- tro- se,|vec- chie le- tro- se non|va- le- te nien- te, se|
 G2 G2 E2 E2 D4 C4 | z2 E2 E2 E2 D2 D2 E2 E2 | G2 G2 ^F4 G4 z2 E2 | E2 E2 F2 E2 D4 E2 E2 | %10
w: non a far l'a- guai- to,|se non a far l'a- guai- to|per la chiaz- za, se|non a far l'a- guai- to per|
 F2 (E3 D/C/ D2) E2 G2 G2 (G2- | G2 ^F2) G2 G4 G2 G4 | E4 z2 E4 E2 F4 | E2 E2 E2 D4 (C4 B,2) | %14
w: la chiaz\- * * * za, per la chiaz\-|* * za. Ti- ra, ti-|ra, ti- ra, ti-|ra, tir' al- la maz\- *|
 C2 G4 G2 G4 E4 | z2 E4 E2 F4 E2 E2 | E2 D4 (C4 B,2) (CDEF | G2) G2 F2 E2 F4 E4 | %18
w: za, ti- ra, ti- ra,|ti- ra, ti- ra, tir'|al- la maz\- * za, * * *|* vec- chie le- tro- se,|
 z2 E2 E2 G2 G4 G2 E2- | EE E2 D2 (C4 B,2 CDEF) | G2 G2 F2 E2 F4 E4 | %21
w: vec- chie le- tro- se scan\-|* na- ros' e paz\- * * * * *|ze, vec- chie le- tro- se,|
 z2 E2 E2 G2 G4[Q:1/4=118] G2[Q:1/4=116] E2- | %22
w: vec- chie le- tro- se scan\-|
[Q:1/4=114] E[Q:1/4=113]E[Q:1/4=111] E2[Q:1/4=109] D2[Q:1/4=106] (C4[Q:1/4=103] B,2)[Q:1/4=102] C4 |] %23
w: * na- ros' e paz\- * ze.|
V:2
 c4 c2 c2 c4 c4 | z2 c2 c2 c2 c2 c2 d4 | d2 e4 d2 d4 B4 | z2 c2 c2 c2 c4 c4 | %4
w: Vec- chie le- tro- se,|vec- chie le- tro- se non|va- le- te nien- te,|vec- chie le- tro- se,|
 z2 c2 c2 c2 c2 c2 d4 | d2 e4 d2 d4 B4 | z2 c2 c2 c2 B2 B2 G4 | G2 G2 G2 G2 G2 G2 E2 c2 | %8
w: vec- chie le- tro- se non|va- le- te nien- te,|se non a far l'a- guai-|to, se non a far l'a- guai- to|
 d2 e2 d4 B4 z2 c2 | G2 A2 F2 D2 G4 E2 c2- | c2 c2 A4 c2 d4 e2 | d4 B4 z2 c4 c2 | c4 G2 c4 c2 c4- | %13
w: per la chiaz- za, se|non a far l'a- guai- to per|* la chiaz- za, per la|chiaz- za. Ti- ra,|ti- ra, ti- ra, ti\-|
 c2 G4 D2 A2 E2 G4 | E4 z2 c4 c2 c4 | G2 c4 c2 c6 G2- | G2 D2 A2 E2 G4 G4 | z2 c2 A2 c2 c4 c4 | %18
w: * ra, tir' al- la maz-|za, ti- ra, ti-|ra, ti- ra, ti- ra,|* tir' al- la maz- za,|vec- chie le- tro- se,|
 z2 c2 c2 d2 e4 d2 c2- | c2 c2 A2 A2 G4 G4 | z2 c2 A2 c2 c4 c4 | z2 c2 c2 d2 e4 d2 c2- | %22
w: vec- chie le- tro- se scan\-|* na- ros' e paz- ze,|vec- chie le- tro- se,|vec- chie le- tro- se scan\-|
 c2 c2 A2 A2 G4 G4 |] %23
w: * na- ros' e paz- ze.|
V:3
 G4 G2 G2 A4 G4 | z2 G2 A2 G2 A2 A2 B4 | B2 c4 B2 A4 G4 | z2 G2 G2 G2 A4 G4 | %4
w: Vec- chie le- tro- se,|vec- chie le- tro- se non|va- le- te nien- te,|vec- chie le- tro- se,|
 z2 G2 A2 G2 A2 A2 B4 | B2 c4 B2 A4 G4- | G4 z2 G2 G2 G2 E2 E2 | CC c2 c2 c2 B2 B2 G3 A | %8
w: vec- chie le- tro- se non|va- le- te nien- te,|* se non a far l'a-|guai- to, se non a far l'a- guai- to|
 B2 c2 A4 G4 z2 G2 | c2 c2 A2 A2 B4 G2 A2- | A2 G2 F4 E2 B4 c2 | A4 G4 z2 G4 G2 | G4 E2 G4 G2 A4 | %13
w: per la chiaz- za, se|non a far l'a- guai- to per|* la chiaz- za, per la|chiaz- za. Ti- ra,|ti- ra, ti- ra, ti-|
 G4 E2 F4 C2 D4 | C4 z2 G4 G2 G4 | E2 G4 G2 A4 G4 | E2 F4 C2 D4 C4 | z2 E2 F2 G2 A4 G4 | %18
w: ra, tir' al- la maz-|za, ti- ra, ti-|ra, ti- ra, ti- ra,|tir' al- la maz- za,|vec- chie le- tro- se,|
 z2 G2 A2 B2 c4 B2 G2- | G2 G2 F3 E D4 C4 | z2 E2 F2 G2 A4 G4 | z2 G2 A2 B2 c4 B2 G2- | %22
w: vec- chie le- tro- se scan\-|* na- ros' e paz- ze,|vec- chie le- tro- se,|vec- chie le- tro- se scan\-|
 G2 G2 F3 E D4 C4 |] %23
w: * na- ros' e paz- ze.|
V:4
 C,4 C,2 C,2 F,,4 C,4 | z2 C,2 F,,2 C,2 F,,2 A,,2 G,,4 | G,,2 C,4 G,,2 D,4 G,,4 | %3
w: Vec- chie le- tro- se,|vec- chie le- tro- se non|va- le- te nien- te,|
 z2 C,2 C,2 C,2 F,,4 C,4 | z2 C,2 F,,2 C,2 F,,2 A,,2 G,,4 | G,,2 C,4 G,,2 D,4 G,,4 | %6
w: vec- chie le- tro- se,|vec- chie le- tro- se non|va- le- te nien- te,|
 z2 C,2 C,2 C,2 G,,2 G,,2 C,4 | C,2 C,2 C,2 C,2 G,,2 G,,2 C,2 C,2 | %8
w: se non a far l'a- guai-|to, se non a far l'a- guai- to|
 G,,2 C,2 D,4 G,,2 G,,2 C,2 C,2 | C,2 A,,2 D,4 G,,2 G,,2 C,2 A,,2 | F,,2 C,2 D,4 A,,2 G,,4 C,2 | %11
w: per la chiaz- za, se non a|far l'a- guai- to, l'a- guai- to|per la chiaz- za, per la|
 D,4 G,,4 z2 C,4 C,2 | C,4 C,2 C,4 C,2 F,,4 | C,6 _B,,2 A,,2 A,,2 G,,4 | C,4 z2 C,4 C,2 C,4 | %15
w: chiaz- za. Ti- ra,|ti- ra, ti- ra, ti-|ra, tir' al- la maz-|za, ti- ra, ti-|
 C,2 C,4 C,2 F,,4 C,4- | C,2 _B,,2 A,,2 A,,2 G,,4 C,4 | z2 C,2 D,2 C,2 F,,4 C,4 | %18
w: ra, ti- ra, ti- ra,|* tir' al- la maz- za,|vec- chie le- tro- se,|
 z2 C,2 A,,2 G,,2 C,4 G,,2 C,2- | C,2 C,2 F,,2 F,,2 G,,4 C,4 | z2 C,2 D,2 C,2 F,,4 C,4 | %21
w: vec- chie le- tro- se scan\-|* na- ros' e paz- ze,|vec- chie le- tro- se,|
 z2 C,2 A,,2 G,,2 C,4 G,,2 C,2- | C,2 C,2 F,,2 F,,2 G,,4 C,4 |] %23
w: vec- chie le- tro- se scan\-|* na- ros' e paz- ze.|

